!!! OTL: Berkowitz99
!!! Chapter: 1
!!! Section: I
!!! Page: 25
!!! Mode: 
!!! Encoder: DJB
**kern
*staff1
*I"Piano
=1-
*clefC3
*k[f#]
*e:
*M6/8
8g\L
8.f#\
16e\Jk
4f#\
16e\LL
16d#\JJ
=2
4e\
8g\
4b\
8b\
=3
8.cc\L
16dd\K
8cc\J
8b\
8r
8b\
=4
8cc\L
8.dd\
16cc\Jk
8b\
8r
8b\
=5
8.a\L
16g\K
8f#\J
8e\L
8d\
8c\J
=6
4.B/
8c#\L
8d#\
16e\L
16f#\JJ
=7
!!linebreak:original
8g\L
8.f#\
16e\Jk
8f#\L
8c#\
8d\J
=8
4e\
8g\
4.d\
==
*-
